static/assets/images/flags/1x1/jo.svg

<svg height="512" width="512" xmlns="http://www.w3.org/2000/svg" xmlns:xlink="http://www.w3.org/1999/xlink"><clipPath id="a"><path d="m113.6 0h493.4v493.5h-493.4z"/></clipPath><g clip-path="url(#a)" transform="matrix(1.0375 0 0 1.0375 -117.8 0)"><g fill-rule="evenodd" stroke-width="1pt"><path d="m0 0h987v164.5h-987z"/><path d="m0 164.5h987v164.5h-987z" fill="#fff"/><path d="m0 329h987v164.5h-987z" fill="#090"/><path d="m0 493.5 493.5-246.8-493.5-246.7z" fill="#f00"/><path d="m164.8 244 22 10.6h-24.5l5.5 24-15.3-19.3-15.3 19.2 5.5-23.9h-24.7l22.1-10.7-15.3-19.1 22.1 10.6 5.5-23.9 5.5 24 22-10.7z" fill="#fff"/></g></g></svg>

<svg xmlns="http://www.w3.org/2000/svg" id="flag-icon-css-jo" width="512" height="512">
  <defs>
    <clipPath id="a">
      <path fill-opacity=".7" d="M113.6 0H607v493.5H113.6z"/>
    </clipPath>
  </defs>
  <g clip-path="url(#a)" transform="translate(-117.8) scale(1.0375)">
    <g fill-rule="evenodd" stroke-width="1pt">
      <path d="M0 0h987v164.5H0z"/>
      <path fill="#fff" d="M0 164.5h987V329H0z"/>
      <path fill="#090" d="M0 329h987v164.5H0z"/>
      <path fill="red" d="M0 493.5l493.5-246.8L0 0v493.5z"/>
      <path fill="#fff" d="M164.8 244l22 10.6h-24.5l5.5 24-15.3-19.3-15.3 19.2 5.5-23.9H118l22.1-10.7-15.3-19.1 22.1 10.6 5.5-23.9 5.5 24 22-10.7z"/>
    </g>
  </g>
</svg>
